tools/download-figma-icons/icons/outlined-large/s-pedelec.svg

<svg width="64" height="65" viewBox="0 0 64 65" fill="none" xmlns="http://www.w3.org/2000/svg">
<path fill-rule="evenodd" clip-rule="evenodd" d="M42.1719 51.7719C42.1719 56.9629 46.3949 61.1859 51.5859 61.1859C56.7769 61.1859 60.9999 56.9629 60.9999 51.7719C60.9999 46.5809 56.7769 42.3579 51.5859 42.3579C51.1389 42.3579 50.7029 42.3999 50.2729 42.4599L52.0019 48.0419C53.8859 48.2509 55.3579 49.8319 55.3579 51.7719C55.3579 53.8549 53.6689 55.5439 51.5859 55.5439C49.5029 55.5439 47.8139 53.8549 47.8139 51.7719C47.8139 50.6299 48.3329 49.6189 49.1349 48.9269L47.4069 43.3479C44.3099 44.8909 42.1719 48.0819 42.1719 51.7719ZM23.744 34.3539L29.5679 50.0139L43.7499 34.3539H23.744ZM2.99999 51.7479C2.99999 56.9399 7.22299 61.1629 12.414 61.1629C16.936 61.1629 20.72 57.9569 21.622 53.7009H11.965C11.454 53.7009 10.979 53.4409 10.703 53.0099C10.427 52.5799 10.389 52.0389 10.603 51.5749L14.713 42.6299C13.976 42.4439 13.209 42.3339 12.414 42.3339C7.22299 42.3339 2.99999 46.5569 2.99999 51.7479ZM14.306 50.7009H21.766C21.444 47.8089 19.807 45.3149 17.468 43.8189L14.306 50.7009ZM26.623 50.7009L21.114 35.8869L18.728 41.0789C22.088 43.0759 24.43 46.6039 24.775 50.7009H26.623ZM49.3769 39.5659C50.0949 39.4359 50.8309 39.3579 51.5859 39.3579C58.4309 39.3579 63.9999 44.9269 63.9999 51.7719C63.9999 58.6169 58.4309 64.1859 51.5859 64.1859C44.7409 64.1859 39.1719 58.6169 39.1719 51.7719C39.1719 46.7359 42.1909 42.3989 46.5109 40.4549L45.4309 36.9659L31.7159 52.1089C30.9059 53.0999 29.6369 53.7009 28.2829 53.7009H24.659C23.718 59.6189 18.593 64.1629 12.414 64.1629C5.56899 64.1629 0 58.5929 0 51.7479C0 44.9039 5.56899 39.3339 12.414 39.3339C13.656 39.3339 14.853 39.5229 15.985 39.8639L19.494 32.2279C19.5325 32.1437 19.5863 32.0715 19.6402 31.9991C19.6465 31.9907 19.6527 31.9823 19.659 31.9739L18.602 29.1329H15.907L16.259 26.133H26.9049C27.9799 27.4349 25.4 28.1059 25.4 28.1059L21.784 29.0819L22.628 31.3539H43.6929L42.7809 28.4089C42.5209 27.5659 41.7529 26.9999 40.8709 26.9999H36.7299V24H40.8709C43.0759 24 44.9959 25.415 45.6479 27.5219L49.3769 39.5659ZM28.7429 45.8011L26.1709 38.8841C26.075 38.6251 26.207 38.3371 26.4649 38.2411L28.6459 37.4301C28.8939 37.3381 29.1699 37.4541 29.2769 37.6961L32.2859 44.4501C32.4029 44.7141 32.2739 45.0221 32.0039 45.1221L29.3859 46.0961C29.1279 46.1921 28.8389 46.0611 28.7429 45.8011Z" fill="black"/>
</svg>

<svg xmlns="http://www.w3.org/2000/svg" width="64" height="65" fill="none" viewBox="0 0 64 65"><path fill="currentColor" fill-rule="evenodd" d="M42.172 51.772c0 5.19 4.223 9.414 9.414 9.414S61 56.963 61 51.772s-4.223-9.414-9.414-9.414c-.447 0-.883.042-1.313.102l1.729 5.582c1.884.209 3.356 1.79 3.356 3.73a3.772 3.772 0 0 1-7.544 0 3.75 3.75 0 0 1 1.32-2.845l-1.727-5.58c-3.097 1.544-5.235 4.735-5.235 8.425M23.744 34.354l5.824 15.66 14.182-15.66zM3 51.748c0 5.192 4.223 9.415 9.414 9.415 4.522 0 8.306-3.206 9.208-7.462h-9.657a1.498 1.498 0 0 1-1.362-2.126l4.11-8.945a9.4 9.4 0 0 0-2.299-.296C7.223 42.334 3 46.557 3 51.748M14.306 50.7h7.46a9.41 9.41 0 0 0-4.298-6.882zm12.317 0-5.509-14.814-2.386 5.192c3.36 1.997 5.702 5.525 6.047 9.622zm22.754-11.135c.718-.13 1.454-.208 2.209-.208C58.43 39.358 64 44.927 64 51.772s-5.57 12.414-12.414 12.414c-6.845 0-12.414-5.57-12.414-12.414 0-5.036 3.019-9.373 7.339-11.317l-1.08-3.49L31.716 52.11c-.81.99-2.08 1.592-3.433 1.592h-3.624c-.941 5.918-6.066 10.462-12.245 10.462C5.569 64.163 0 58.593 0 51.748s5.569-12.414 12.414-12.414c1.242 0 2.439.189 3.571.53l3.509-7.636c.038-.084.092-.157.146-.229l.019-.025-1.057-2.841h-2.695l.352-3h10.646c1.075 1.302-1.505 1.973-1.505 1.973l-3.616.976.844 2.272h21.065l-.912-2.945a1.99 1.99 0 0 0-1.91-1.41H36.73V24h4.14a4.98 4.98 0 0 1 4.778 3.522zM28.743 45.8l-2.572-6.917a.5.5 0 0 1 .294-.643l2.18-.81a.5.5 0 0 1 .632.265l3.009 6.754a.5.5 0 0 1-.282.672l-2.618.974a.5.5 0 0 1-.643-.295" clip-rule="evenodd"/></svg>
